X:1
T:Dichterliebe
T:Ich will meine Seele tauchen
T:V. Ich will meine Seele tauchen
T:Robert Schumann
T:Dichterliebe Op.48
T:Heinrich Heine
T:Creative Commons copyright waiver (CC0 1.0 Universal)
T:Creative Commons copyright waiver (CC0 1.0 Universal)
C:Robert Schumann
Z:Heinrich Heine
Z:Creative Commons copyright waiver (CC0 1.0 Universal)
%%score 1 { ( 2 5 ) | ( 3 4 ) }
L:1/8
Q:1/4=50
M:2/4
K:D
V:1 treble nm="Voice"
V:2 treble nm="Piano"
V:5 treble 
V:3 bass 
V:4 bass 
V:1
!p!"^Leise" B/ | B B/ B/ (^A B/) c/ | d2 B B/ B/ | B3/2 B/ ^A B/ c/ | d2 z z/ d/ | %5
w: Ich|will mei- ne See- * le|tau- chen in den|Kelch der Lei- lie hin-|ein; die|
 d d/ d/ (c d/) e/ | f2 d d | e d/ d/ c B | ^A z z B | B B ^A B/ c/ | d2 B B/ B/ | %11
w: Li- lie soll klin- * gend|hau- chen ein|Lied von der Lieb- sten|mein. Das|Lied soll schau- ern und|be- ben wie der|
 B3/2 B/ (^A B/) c/ | d2 z d | d3/2 d/ (c d/) e/ | f2 d d | (3e e d c3/2 ^A/ | B2 z2 | z4 | z4 | %19
w: Kuss von ih- * rem|Mund', den|sie mir einst _ ge-|ge- ben in|wun- der- bar süs- ser|Stund'!|||
 z4 | z4[Q:1/4=30] | z4 | z4 |] %23
w: ||||
V:2
 z/ |!pp! eecc | ddBB | eecc | ddBB | ggee | ffdd | edcB | ^A F2 B | eecc | ddBB | eecc | ddBB | %13
 ggee | ffdd | edc^A | B3 (F- | F=cBA | Ggf^e | =edc^A | B)!>(! B2"^ritard." B- | %21
 B B2!>)!!ppp! B- | [DB]4 |] %23
V:3
 z/ | %1
 C,/4B,/4E/4[I:staff -1]G/4[I:staff +1] C,/4B,/4E/4[I:staff -1]G/4[I:staff +1] F,/4^A,/4E/4[I:staff -1]F/4[I:staff +1] F,/4A,/4E/4[I:staff -1]F/4 | %2
[I:staff +1] B,,/4B,/4D/4[I:staff -1]F/4[I:staff +1] B,,/4B,/4D/4[I:staff -1]F/4[I:staff +1] D,/4B,/4D/4[I:staff -1]F/4[I:staff +1] D,/4B,/4D/4[I:staff -1]F/4 | %3
[I:staff +1] C,/4B,/4E/4[I:staff -1]G/4[I:staff +1] C,/4B,/4E/4[I:staff -1]G/4[I:staff +1] F,/4^A,/4E/4[I:staff -1]F/4[I:staff +1] F,/4A,/4E/4[I:staff -1]F/4 | %4
[I:staff +1] B,,/4B,/4D/4[I:staff -1]F/4[I:staff +1] B,,/4B,/4D/4[I:staff -1]F/4[I:staff +1] D,/4B,/4D/4[I:staff -1]F/4[I:staff +1] D,/4B,/4D/4[I:staff -1]F/4 | %5
[I:staff +1] E,/4D/4G/4[I:staff -1]_B/4[I:staff +1] E,/4D/4G/4[I:staff -1]B/4[I:staff +1] A,/4C/4G/4[I:staff -1]A/4[I:staff +1] A,/4C/4G/4[I:staff -1]A/4 | %6
[I:staff +1] D,/4C/4F/4[I:staff -1]A/4[I:staff +1] D,/4C/4F/4[I:staff -1]A/4[I:staff +1] G,/4B,/4D/4[I:staff -1]F/4[I:staff +1] G,/4B,/4D/4[I:staff -1]F/4 | %7
[I:staff +1] C,/4B,/4E/4^A,/4 D,/4B,/4D/4[I:staff -1]F/4[I:staff +1] E,/4G,/4C/4[I:staff -1]E/4[I:staff +1] ^E,/4^G,/4B,/4[I:staff -1]D/4 | %8
[I:staff +1] F,,/4F,/4^A,/4[I:staff -1]C/4[I:staff +1] =E,/4F,/4A,/4[I:staff -1]C/4[I:staff +1] E,/4F,/4A,/4[I:staff -1]C/4[I:staff +1] D,/4F,/4B,/4[I:staff -1]D/4 | %9
[I:staff +1] C,/4B,/4E/4[I:staff -1]G/4[I:staff +1] C,/4B,/4E/4[I:staff -1]G/4[I:staff +1] F,/4^A,/4E/4[I:staff -1]F/4[I:staff +1] F,/4A,/4E/4[I:staff -1]F/4 | %10
[I:staff +1] B,,/4B,/4D/4[I:staff -1]F/4[I:staff +1] B,,/4B,/4D/4[I:staff -1]F/4[I:staff +1] D,/4B,/4D/4[I:staff -1]F/4[I:staff +1] D,/4B,/4D/4[I:staff -1]F/4 | %11
[I:staff +1] C,/4B,/4E/4[I:staff -1]G/4[I:staff +1] C,/4B,/4E/4[I:staff -1]G/4[I:staff +1] F,/4^A,/4E/4[I:staff -1]F/4[I:staff +1] F,/4A,/4E/4[I:staff -1]F/4 | %12
[I:staff +1] B,,/4B,/4D/4[I:staff -1]F/4[I:staff +1] B,,/4B,/4D/4[I:staff -1]F/4[I:staff +1] D,/4B,/4D/4[I:staff -1]F/4[I:staff +1] D,/4B,/4D/4[I:staff -1]F/4 | %13
[I:staff +1] E,/4D/4G/4[I:staff -1]_B/4[I:staff +1] E,/4D/4G/4[I:staff -1]B/4[I:staff +1] A,/4C/4G/4[I:staff -1]A/4[I:staff +1] A,/4C/4G/4[I:staff -1]A/4 | %14
[I:staff +1] D,/4C/4F/4[I:staff -1]A/4[I:staff +1] D,/4C/4F/4[I:staff -1]A/4[I:staff +1] G,/4B,/4D/4[I:staff -1]F/4[I:staff +1] G,/4B,/4D/4[I:staff -1]F/4 | %15
[I:staff +1] C,/4B,/4E/4^A,/4 D,/4B,/4D/4[I:staff -1]F/4[I:staff +1] E,/4G,/4C/4[I:staff -1]E/4[I:staff +1] F,/4A,/4C/4[I:staff -1]E/4 | %16
[I:staff +1] B,,/4F,/4B,/4[I:staff -1]D/4[I:staff +1] D,/4F,/4B,/4[I:staff -1]D/4[I:staff +1] C,/4F,/4B,/4[I:staff -1]D/4[I:staff +1] B,,/4F,/4B,/4[I:staff -1]D/4 | %17
[I:staff +1] ^A,,/4F,/4C/4[I:staff -1]E/4[I:staff +1] =A,,/4F,/4=C/4[I:staff -1]^D/4[I:staff +1] G,,/4E,/4B,/4[I:staff -1]E/4[I:staff +1] F,,/4^D,/4A,/4[I:staff -1]D/4 | %18
[I:staff +1] E,,/4E,/4G,/4[I:staff -1]E/4[I:staff +1] E,/4B,/4E/4[I:staff -1]G/4[I:staff +1] D,/4B,/4D/4[I:staff -1]F/4[I:staff +1] ^C,/4B,/4C/4[I:staff -1]^E/4 | %19
[I:staff +1] =G,/4B,/4E/4[I:staff -1]B/4[I:staff +1] F,/4^A,/4D/4[I:staff -1]^A/4[I:staff +1] E,/4G,/4C/4[I:staff -1]G/4[I:staff +1] F,/4A,/4C/4[I:staff -1]E/4 | %20
[I:staff +1] B,,/4F,/4B,/4[I:staff -1]D/4[I:staff +1] E,/4G,/4B,/4[I:staff -1]E/4[I:staff +1] B,,/4F,/4B,/4[I:staff -1]D/4[I:staff +1] E,/4G,/4B,/4[I:staff -1]E/4 | %21
[I:staff +1] B,,/4F,/4B,/4[I:staff -1]D/4[I:staff +1] E,/4G,/4B,/4[I:staff -1]C/4[I:staff +1] B,,/4F,/4B,/4[I:staff -1]D/4[I:staff +1] E,/4G,/4B,/4-[I:staff -1]C/4 | %22
[I:staff +1] [F,B,]4 |] %23
V:4
 x/ | C,C,F,F, | B,,B,,D,D, | C,C,F,F, | B,,B,,D,D, | E,E,A,A, | D,D,G,G, | C,D,E,^E, | F,,E,E,D, | %9
 C,C,F,F, | B,,B,,D,D, | C,C,F,F, | B,,B,,D,D, | E,E,A,A, | D,D,G,G, | C,D,E,F, | (B,,D,C,B,, | %17
 ^A,,=A,,G,,F,,) | (E,,E,D,C, | G,F,E,F, | B,,)E,B,,E, | B,,E,B,,E, | B,,4 |] %23
V:5
 x/ | x4 | x4 | x4 | x4 | x4 | x4 | x3/4 G3/4 x5/2 | x4 | x4 | x4 | x4 | x4 | x4 | x4 | %15
 x3/4 G3/4 x5/2 | x4 | x3/4 x13/4 | x3/4 x13/4 | x3/4 x13/4 | x{/=A} (GF){/A} G | F{/F} ED{/F} E | %22
 D4 |] %23

